Hatter-kde-dark/actions/16/align-horizontal-center.svg

<?xml version="1.0" encoding="UTF-8"?>
<svg viewBox="0 0 16 16" xmlns="http://www.w3.org/2000/svg">
 <defs id="defs3051">
  <style id="current-color-scheme" type="text/css">.ColorScheme-Text {
        color:#dedede;
      }</style>
 </defs>
 <path class="ColorScheme-Text" d="m7.5 2v1h-2.5v4h2.5v2h-4.5v4h4.5v1h1v-1h4.5v-4h-4.5v-2h2.5v-4h-2.5v-1h-1zm-1.5 2h4v2h-4v-2zm-2 6h8v2h-8v-2z" fill="currentColor"/>
</svg>

<svg xmlns="http://www.w3.org/2000/svg" viewBox="0 0 16 16">
  <defs id="defs3051">
    <style type="text/css" id="current-color-scheme">
      .ColorScheme-Text {
        color:#dedede;
      }
      </style>
  </defs>
 <path style="fill:currentColor;fill-opacity:1;stroke:none" 
       d="M 7.5 2 L 7.5 3 L 5 3 L 5 7 L 7.5 7 L 7.5 9 L 3 9 L 3 13 L 7.5 13 L 7.5 14 L 8.5 14 L 8.5 13 L 13 13 L 13 9 L 8.5 9 L 8.5 7 L 11 7 L 11 3 L 8.5 3 L 8.5 2 L 7.5 2 z M 6 4 L 10 4 L 10 6 L 6 6 L 6 4 z M 4 10 L 12 10 L 12 12 L 4 12 L 4 10 z "
     class="ColorScheme-Text"
     />
</svg>
